public/formular-icons/operators/Divide.svg

<svg style="vertical-align:-.081ex" xmlns="http://www.w3.org/2000/svg" width="1.76ex" height="1.296ex" viewBox="0 -537 778 573" xmlns:xlink="http://www.w3.org/1999/xlink"><defs><path id="a" d="M318 466q0 34 21 52t47 19q32 0 52-20t20-51q0-28-18-49t-52-21q-33 0-51 21t-19 49ZM56 237v13l14 20h636q15-8 15-20t-15-20H70q-14 7-14 20ZM318 34q0 34 21 52t47 19q32 0 52-20t20-51q0-28-18-49t-52-21q-33 0-51 21t-19 49Z"/></defs><g stroke="currentColor" fill="currentColor" stroke-width="0"><use data-c="F7" xlink:href="#a" transform="scale(1 -1)"/></g></svg>

<svg style="vertical-align: -0.081ex" xmlns="http://www.w3.org/2000/svg" width="1.76ex" height="1.296ex" role="img" focusable="false" viewBox="0 -537 778 573" xmlns:xlink="http://www.w3.org/1999/xlink"><defs><path id="MJX-4-TEX-N-F7" d="M318 466Q318 500 339 518T386 537Q418 537 438 517T458 466Q458 438 440 417T388 396Q355 396 337 417T318 466ZM56 237T56 250T70 270H706Q721 262 721 250T706 230H70Q56 237 56 250ZM318 34Q318 68 339 86T386 105Q418 105 438 85T458 34Q458 6 440 -15T388 -36Q355 -36 337 -15T318 34Z"></path></defs><g stroke="currentColor" fill="currentColor" stroke-width="0" transform="scale(1,-1)"><g data-mml-node="math"><g data-mml-node="mo"><use data-c="F7" xlink:href="#MJX-4-TEX-N-F7"></use></g></g></g></svg>
